src/Pure/16/symbolic/status/airplane-mode-disabled-symbolic.svg

<?xml version="1.0" encoding="UTF-8" standalone="no"?>
<svg
   width="16"
   height="16"
   version="1.1"
   id="svg2"
   sodipodi:docname="airplane-mode-disabled-symbolic.svg"
   inkscape:version="1.4.2 (ebf0e940d0, 2025-05-08)"
   xmlns:inkscape="http://www.inkscape.org/namespaces/inkscape"
   xmlns:sodipodi="http://sodipodi.sourceforge.net/DTD/sodipodi-0.dtd"
   xmlns="http://www.w3.org/2000/svg"
   xmlns:svg="http://www.w3.org/2000/svg">
  <defs
     id="defs2">
     <style
        id="current-color-scheme"
        type="text/css">
        .ColorScheme-Text { color:#363636; }
        .ColorScheme-NegativeText { color:#da4453; }
     </style>
  </defs>
  <sodipodi:namedview
     id="namedview2"
     pagecolor="#ffffff"
     bordercolor="#000000"
     borderopacity="0.25"
     inkscape:showpageshadow="2"
     inkscape:pageopacity="0.0"
     inkscape:pagecheckerboard="0"
     inkscape:deskcolor="#d1d1d1"
     inkscape:zoom="49.6875"
     inkscape:cx="8"
     inkscape:cy="8"
     inkscape:window-width="1920"
     inkscape:window-height="1010"
     inkscape:window-x="0"
     inkscape:window-y="0"
     inkscape:window-maximized="1"
     inkscape:current-layer="svg2" />
  <path
     id="path1"
     style="fill:currentColor"
     class="ColorScheme-Text"
     d="M 7.3359375 0 L 7.21875 0.001953125 A 1.0001 1.0001 0 0 0 7.1054688 0.009765625 C 6.4805088 0.087929625 6.0195563 0.68167063 6.0976562 1.3066406 A 1.0001 1.0001 0 0 0 6.0976562 1.3164062 L 6.515625 4.3945312 L 7.6816406 5.5605469 L 7.0898438 1.1816406 C 7.0787337 1.0927806 7.1416438 1.0130631 7.2304688 1.0019531 L 7.3457031 1 C 7.5443531 1 7.7250675 1.1168381 7.8046875 1.2988281 L 10.587891 7.1621094 L 14.017578 7.0488281 C 14.542578 7.0313281 14.9825 7.44391 15 7.96875 L 15 8 C 15 8.5251 14.573928 8.9511719 14.048828 8.9511719 L 10.970703 8.8496094 L 12.005859 9.8847656 L 14.015625 9.9511719 A 1.0001 1.0001 0 0 0 14.048828 9.9511719 C 15.114428 9.9511719 16 9.0656 16 8 A 1.0001 1.0001 0 0 0 16 7.9980469 A 1.0001 1.0001 0 0 0 16 7.9960938 A 1.0001 1.0001 0 0 0 16 7.9941406 A 1.0001 1.0001 0 0 0 16 7.9921875 A 1.0001 1.0001 0 0 0 16 7.9902344 A 1.0001 1.0001 0 0 0 16 7.9882812 A 1.0001 1.0001 0 0 0 16 7.9863281 A 1.0001 1.0001 0 0 0 16 7.984375 L 16 7.953125 A 1.0001 1.0001 0 0 0 15.998047 7.9355469 C 15.962629 6.8704469 15.049375 6.0152813 13.984375 6.0507812 L 11.210938 6.1425781 L 8.7207031 0.8984375 L 8.71875 0.8984375 C 8.48057 0.3557875 7.9383831 7.4014868e-17 7.3457031 0 A 1.0001 1.0001 0 0 0 7.3359375 0 z M 1.2832031 0.78125 C 1.1553931 0.78125 1.0276225 0.8317525 0.9296875 0.9296875 C 0.7338175 1.1255575 0.7338175 1.4408488 0.9296875 1.6367188 L 5.6132812 6.3203125 L 4.140625 6.3632812 L 3.1816406 4.6855469 C 2.9400306 4.2627469 2.48694 4 2 4 A 1.0001 1.0001 0 0 0 1 5 L 1 6.5 L 1 6.5664062 C 0.41978 6.7873263 0 7.3526 0 8 C 0 8.64764 0.41935 9.2129938 1 9.4335938 L 1 9.5 L 1 10 L 1 11 A 1.0001 1.0001 0 0 0 2.1054688 11.994141 L 2.1816406 11.986328 A 1.0001 1.0001 0 0 0 2.2871094 11.96875 C 2.6608594 11.88809 2.9882806 11.652943 3.1816406 11.314453 L 4.140625 9.6347656 L 6.7714844 9.7128906 L 6.0976562 14.705078 A 1.0001 1.0001 0 0 0 6.0878906 14.837891 C 6.0878994 15.467951 6.61983 16 7.25 16 L 7.3457031 16 C 7.9384231 16 8.48065 15.644183 8.71875 15.101562 L 8.7207031 15.101562 L 10.546875 11.253906 L 14.363281 15.070312 C 14.559151 15.266182 14.874443 15.266182 15.070312 15.070312 C 15.266182 14.874443 15.266182 14.559151 15.070312 14.363281 L 11.001953 10.294922 L 10.251953 9.5449219 L 7.9023438 7.1953125 L 6.7363281 6.0292969 L 1.6367188 0.9296875 C 1.5387837 0.8317525 1.4110131 0.78125 1.2832031 0.78125 z M 2 5 C 2.12976 5 2.2500731 5.0689816 2.3144531 5.1816406 L 3.5703125 7.3808594 L 6.5839844 7.2910156 L 9.796875 10.503906 L 7.8046875 14.701172 C 7.7250575 14.883172 7.5443531 15 7.3457031 15 L 7.25 15 C 7.16048 15 7.0878906 14.927392 7.0878906 14.837891 L 7.9101562 8.7460938 L 3.5703125 8.6191406 L 2.3144531 10.818359 C 2.2629831 10.908459 2.1753319 10.970788 2.0761719 10.992188 L 2 11 L 2 10 L 2 9 L 2 8.5664062 L 1.515625 8.5332031 C 1.227855 8.5236031 1 8.2879 1 8 C 1 7.71206 1.227865 7.4763869 1.515625 7.4667969 L 2 7.4316406 L 2 7 L 2 6 L 2 5 z " />
</svg>

<svg width="16" height="16" version="1.1" xmlns="http://www.w3.org/2000/svg">
 <path d="m7.3359 0-0.11719 0.0019531a1.0001 1.0001 0 0 0-0.11328 0.0078125c-0.62496 0.078164-1.0859 0.67193-1.0078 1.2969a1.0001 1.0001 0 0 0 0 0.0097656l0.41797 3.0781 1.166 1.166-0.5918-4.3789c-0.01111-0.08886 0.051795-0.16858 0.14062-0.17969l0.11523-0.0019531c0.19865 0 0.37936 0.11684 0.45898 0.29883l2.7832 5.8633 3.4297-0.11328c0.525-0.0175 0.96492 0.39508 0.98242 0.91992v0.03125c0 0.5251-0.42607 0.95117-0.95117 0.95117l-3.0781-0.10156 1.0352 1.0352 2.0098 0.066406a1.0001 1.0001 0 0 0 0.033203 0c1.0656 0 1.9512-0.8856 1.9512-1.9512a1.0001 1.0001 0 0 0 0-0.0019531 1.0001 1.0001 0 0 0 0-0.0019531 1.0001 1.0001 0 0 0 0-0.0019532 1.0001 1.0001 0 0 0 0-0.0019531 1.0001 1.0001 0 0 0 0-0.0019531 1.0001 1.0001 0 0 0 0-0.0019532 1.0001 1.0001 0 0 0 0-0.0019531 1.0001 1.0001 0 0 0 0-0.0019531v-0.03125a1.0001 1.0001 0 0 0-0.001953-0.017578c-0.035418-1.0651-0.9487-1.9203-2.0137-1.8848l-2.7734 0.091797-2.4902-5.2441h-0.0019531c-0.23818-0.54265-0.78032-0.89844-1.373-0.89844a1.0001 1.0001 0 0 0-0.0097656 0zm-5.3359 4a1.0001 1.0001 0 0 0-1 1v1.5 0.066406c-0.58022 0.22092-1 0.7862-1 1.4336 0 0.64764 0.41935 1.213 1 1.4336v0.066406 0.5 1a1.0001 1.0001 0 0 0 1.1055 0.99414l0.076172-0.007813a1.0001 1.0001 0 0 0 0.10547-0.017578c0.37375-0.08066 0.70117-0.31581 0.89453-0.6543l0.95898-1.6797 2.6309 0.078125-0.67383 4.9922a1.0001 1.0001 0 0 0-0.0097656 0.13281c8.8e-6 0.63006 0.53193 1.1621 1.1621 1.1621h0.095703c0.59272 0 1.1349-0.35582 1.373-0.89844h0.0019531l2.2812-4.8066-0.75-0.75-2.4473 5.1563c-0.07963 0.182-0.26033 0.29883-0.45898 0.29883h-0.095703c-0.08952 0-0.16211-0.072609-0.16211-0.16211l0.82227-6.0918-4.3398-0.12695-1.2559 2.1992c-0.05147 0.0901-0.13912 0.15243-0.23828 0.17383l-0.076172 0.007812v-1-1-0.43359l-0.48438-0.033203c-0.28777-0.0096-0.51562-0.2453-0.51562-0.5332 0-0.28794 0.22786-0.52361 0.51562-0.5332l0.48438-0.035156v-0.43164-1-1c0.12976 0 0.25007 0.068981 0.31445 0.18164l1.2559 2.1992 4.3398-0.12891-0.0078124-0.056641-1.166-1.166 0.035156 0.25586-2.6309 0.078125-0.95898-1.6777c-0.24161-0.4228-0.69466-0.68555-1.1816-0.68555z" fill="#363636"/>
 <path d="m1.636 0.92893 13.435 13.435c0.19587 0.19587 0.19587 0.51124 0 0.70711-0.19587 0.19587-0.51124 0.19587-0.70711 0l-13.435-13.435c-0.19587-0.19587-0.19587-0.51124 0-0.70711 0.19587-0.19587 0.51124-0.19587 0.70711 0z" fill="#363636"/>
</svg>
